X:7001
T:Gabriel's Message
T:The Angel Gabriel from Heaven came
R:Irregular
C:Trad.
O:Basque
Z:Paul Hardy's Xmas Tunebook 2019 (see www.paulhardy.net). Creative Commons cc by-nc-sa licenced.
M:9/8
L:1/8
Q:3/8=80
K:Em
B,|"Em"E2 G "D"F2 A "Em"G2 F|[M:12/8]"C"E3 "D"F3 "B7"B,3-B, z B,|
[M:9/8] "Em"E2 G "D"F2 A "Em"G2 F|[M:12/8]"C"E3- "D"E2 D "Em"E3-E z G|
"G"G2 A G2 F "Em"G2 A B2 B|"D"A3 "G"G3 "D"F3- F z G|
"Am"A2 G F2 E "B7"F3 B,3|"Em"E3 "C"GFG "Am"E3- "D"E2 D|"Em"E6-E3 z2|]
W:The angel Gabriel from heaven came,
W:His wings as drifted snow, his eyes as flame;
W:All hail, said he, thou lowly maiden Mary,
W:Most highly favour'd lady, Gloria!
W:
W:Then gentle Mary meekly bowed her head
W:To me be as it pleaseth God, she said,
W:My soul shall laud and magnify His holy name.
W:Most highly favour'd lady, Gloria!

